icons/1_Primary/Twitter.svg

<svg width="1024" height="1024" fill="none" xmlns="http://www.w3.org/2000/svg"><g clip-path="url(#a)"><path d="M512 1024c282.77 0 512-229.23 512-512S794.77 0 512 0 0 229.23 0 512s229.23 512 512 512Z" fill="#9ABEFF"/><path d="M778 354.8c-18.8 8.3-38.9 13.9-60.1 16.5 21.6-13 38.2-33.5 46-57.9-20.2 11.8-42.7 20.4-66.5 25.2-19.1-20.4-46.2-33.2-76.4-33.2-57.8 0-104.7 46.9-104.7 104.6 0 8.3 1 16.3 2.7 23.9-87-4.1-164.2-45.9-215.8-109.1-9.1 15.4-14.2 33.2-14.2 52.7 0 36.4 18.5 68.4 46.6 87.2-17.2-.6-33.3-5.3-47.4-13.1v1.3c0 50.8 36 93.1 84 102.7-8.8 2.4-18.1 3.6-27.6 3.6-6.7 0-13.1-.6-19.5-1.8 13.4 41.6 52 71.9 98 72.7-35.7 28.1-81.1 44.8-129.8 44.8-8.3 0-16.6-.5-24.9-1.4 46.6 29.7 101.5 47 160.8 47C621.7 720.5 727 561 727 422.9c0-4.4 0-8.9-.3-13.4 20.4-14.7 38.3-33.2 52.3-54.2l-1-.5Z" fill="#fff"/></g><defs><clipPath id="a"><path fill="#fff" d="M0 0h1024v1024H0z"/></clipPath></defs></svg>

<svg width="1024" height="1024" viewBox="0 0 1024 1024" fill="none" xmlns="http://www.w3.org/2000/svg">
<g clip-path="url(#clip0_2_3762)">
<path d="M512 1024C794.77 1024 1024 794.77 1024 512C1024 229.23 794.77 0 512 0C229.23 0 0 229.23 0 512C0 794.77 229.23 1024 512 1024Z" fill="#9ABEFF"/>
<path d="M778 354.8C759.2 363.1 739.1 368.7 717.9 371.3C739.5 358.3 756.1 337.8 763.9 313.4C743.7 325.2 721.2 333.8 697.4 338.6C678.3 318.2 651.2 305.4 621 305.4C563.2 305.4 516.3 352.3 516.3 410C516.3 418.3 517.3 426.3 519 433.9C432 429.8 354.8 388 303.2 324.8C294.1 340.2 289 358 289 377.5C289 413.9 307.5 445.9 335.6 464.7C318.4 464.1 302.3 459.4 288.2 451.6V452.9C288.2 503.7 324.2 546 372.2 555.6C363.4 558 354.1 559.2 344.6 559.2C337.9 559.2 331.5 558.6 325.1 557.4C338.5 599 377.1 629.3 423.1 630.1C387.4 658.2 342 674.9 293.3 674.9C285 674.9 276.7 674.4 268.4 673.5C315 703.2 369.9 720.5 429.2 720.5C621.7 720.5 727 561 727 422.9C727 418.5 727 414 726.7 409.5C747.1 394.8 765 376.3 779 355.3L778 354.8Z" fill="white"/>
</g>
<defs>
<clipPath id="clip0_2_3762">
<rect width="1024" height="1024" fill="white"/>
</clipPath>
</defs>
</svg>
